src/icons/platforms/google-play-mobile.svg

<svg width="135" height="40" viewBox="0 0 135 40" fill="none" xmlns="http://www.w3.org/2000/svg">
<rect x="0.5" y="0.5" width="134" height="39" rx="4.5" fill="black"/>
<path d="M68.136 21.7509C65.784 21.7509 63.867 23.5399 63.867 26.0039C63.867 28.4529 65.784 30.2569 68.136 30.2569C70.489 30.2569 72.406 28.4529 72.406 26.0039C72.405 23.5399 70.488 21.7509 68.136 21.7509ZM68.136 28.5829C66.847 28.5829 65.736 27.5199 65.736 26.0049C65.736 24.4739 66.848 23.4269 68.136 23.4269C69.425 23.4269 70.536 24.4739 70.536 26.0049C70.536 27.5189 69.425 28.5829 68.136 28.5829ZM58.822 21.7509C56.47 21.7509 54.553 23.5399 54.553 26.0039C54.553 28.4529 56.47 30.2569 58.822 30.2569C61.175 30.2569 63.092 28.4529 63.092 26.0039C63.092 23.5399 61.175 21.7509 58.822 21.7509ZM58.822 28.5829C57.533 28.5829 56.422 27.5199 56.422 26.0049C56.422 24.4739 57.534 23.4269 58.822 23.4269C60.111 23.4269 61.222 24.4739 61.222 26.0049C61.223 27.5189 60.111 28.5829 58.822 28.5829ZM47.744 23.0569V24.8609H52.062C51.933 25.8759 51.595 26.6169 51.079 27.1319C50.451 27.7599 49.468 28.4529 47.744 28.4529C45.086 28.4529 43.008 26.3099 43.008 23.6519C43.008 20.9939 45.086 18.8509 47.744 18.8509C49.178 18.8509 50.225 19.4149 50.998 20.1399L52.271 18.8669C51.191 17.8359 49.758 17.0469 47.744 17.0469C44.103 17.0469 41.042 20.0109 41.042 23.6519C41.042 27.2929 44.103 30.2569 47.744 30.2569C49.709 30.2569 51.192 29.6119 52.351 28.4039C53.543 27.2119 53.914 25.5359 53.914 24.1829C53.914 23.7649 53.882 23.3779 53.817 23.0559H47.744V23.0569ZM93.052 24.4579C92.698 23.5079 91.618 21.7509 89.411 21.7509C87.22 21.7509 85.399 23.4749 85.399 26.0039C85.399 28.3879 87.204 30.2569 89.62 30.2569C91.569 30.2569 92.697 29.0649 93.165 28.3719L91.715 27.4049C91.232 28.1139 90.571 28.5809 89.62 28.5809C88.67 28.5809 87.993 28.1459 87.558 27.2919L93.245 24.9399L93.052 24.4579ZM87.252 25.8759C87.204 24.2319 88.525 23.3949 89.476 23.3949C90.217 23.3949 90.845 23.7659 91.055 24.2969L87.252 25.8759ZM82.629 29.9999H84.497V17.4989H82.629V29.9999ZM79.567 22.7019H79.503C79.084 22.2019 78.278 21.7509 77.264 21.7509C75.137 21.7509 73.188 23.6199 73.188 26.0209C73.188 28.4049 75.137 30.2579 77.264 30.2579C78.279 30.2579 79.084 29.8069 79.503 29.2919H79.567V29.9039C79.567 31.5309 78.697 32.4009 77.296 32.4009C76.152 32.4009 75.443 31.5799 75.153 30.8869L73.526 31.5639C73.993 32.6909 75.233 34.0769 77.296 34.0769C79.487 34.0769 81.34 32.7879 81.34 29.6459V22.0099H79.568V22.7019H79.567ZM77.425 28.5829C76.136 28.5829 75.057 27.5029 75.057 26.0209C75.057 24.5219 76.136 23.4269 77.425 23.4269C78.697 23.4269 79.696 24.5219 79.696 26.0209C79.696 27.5029 78.697 28.5829 77.425 28.5829ZM101.806 17.4989H97.335V29.9999H99.2V25.2639H101.805C103.873 25.2639 105.907 23.7669 105.907 21.3819C105.907 18.9969 103.874 17.4989 101.806 17.4989ZM101.854 23.5239H99.2V19.2389H101.854C103.249 19.2389 104.041 20.3939 104.041 21.3819C104.041 22.3499 103.249 23.5239 101.854 23.5239ZM113.386 21.7289C112.035 21.7289 110.636 22.3239 110.057 23.6429L111.713 24.3339C112.067 23.6429 112.727 23.4169 113.418 23.4169C114.383 23.4169 115.364 23.9959 115.38 25.0249V25.1539C115.042 24.9609 114.318 24.6719 113.434 24.6719C111.649 24.6719 109.831 25.6529 109.831 27.4859C109.831 29.1589 111.295 30.2359 112.935 30.2359C114.189 30.2359 114.881 29.6729 115.315 29.0129H115.379V29.9779H117.181V25.1849C117.182 22.9669 115.524 21.7289 113.386 21.7289ZM113.16 28.5799C112.55 28.5799 111.697 28.2739 111.697 27.5179C111.697 26.5529 112.759 26.1829 113.676 26.1829C114.495 26.1829 114.882 26.3599 115.38 26.6009C115.235 27.7599 114.238 28.5799 113.16 28.5799ZM123.743 22.0019L121.604 27.4219H121.54L119.32 22.0019H117.31L120.639 29.5769L118.741 33.7909H120.687L125.818 22.0019H123.743ZM106.937 29.9999H108.802V17.4989H106.937V29.9999Z" fill="white"/>
<path d="M47.418 10.2432C47.418 11.0812 47.17 11.7482 46.673 12.2462C46.109 12.8382 45.3731 13.1342 44.4691 13.1342C43.6031 13.1342 42.8661 12.8342 42.2611 12.2342C41.6551 11.6332 41.3521 10.8892 41.3521 10.0012C41.3521 9.11219 41.6551 8.36819 42.2611 7.76819C42.8661 7.16719 43.6031 6.86719 44.4691 6.86719C44.8991 6.86719 45.3101 6.95119 45.7001 7.11819C46.0911 7.28619 46.4041 7.50919 46.6381 7.78819L46.111 8.31619C45.714 7.84119 45.167 7.60419 44.468 7.60419C43.836 7.60419 43.29 7.82619 42.829 8.27019C42.368 8.71419 42.1381 9.29119 42.1381 10.0002C42.1381 10.7092 42.368 11.2862 42.829 11.7302C43.29 12.1742 43.836 12.3962 44.468 12.3962C45.138 12.3962 45.6971 12.1732 46.1441 11.7262C46.4341 11.4352 46.602 11.0302 46.647 10.5112H44.468V9.79019H47.375C47.405 9.94719 47.418 10.0982 47.418 10.2432Z" fill="white"/>
<path d="M52.0281 7.73724H49.2961V9.63924H51.7601V10.3602H49.2961V12.2622H52.0281V13.0002H48.5251V7.00024H52.0281V7.73724Z" fill="white"/>
<path d="M55.279 13.0002H54.508V7.73724H52.832V7.00024H56.955V7.73724H55.279V13.0002Z" fill="white"/>
<path d="M59.938 13.0002V7.00024H60.709V13.0002H59.938Z" fill="white"/>
<path d="M64.1281 13.0002H63.3572V7.73724H61.6812V7.00024H65.8042V7.73724H64.1281V13.0002Z" fill="white"/>
<path d="M73.6089 12.2252C73.0189 12.8312 72.2859 13.1342 71.4089 13.1342C70.5319 13.1342 69.7989 12.8312 69.2099 12.2252C68.6199 11.6192 68.3259 10.8772 68.3259 10.0002C68.3259 9.12323 68.6199 8.38123 69.2099 7.77523C69.7989 7.16923 70.5319 6.86523 71.4089 6.86523C72.2809 6.86523 73.0129 7.17023 73.6049 7.77923C74.1969 8.38823 74.4929 9.12823 74.4929 10.0002C74.4929 10.8772 74.1979 11.6192 73.6089 12.2252ZM69.7789 11.7222C70.2229 12.1722 70.7659 12.3962 71.4089 12.3962C72.0519 12.3962 72.5959 12.1712 73.0389 11.7222C73.4829 11.2722 73.7059 10.6982 73.7059 10.0002C73.7059 9.30223 73.4829 8.72823 73.0389 8.27823C72.5959 7.82823 72.0519 7.60423 71.4089 7.60423C70.7659 7.60423 70.2229 7.82923 69.7789 8.27823C69.3359 8.72823 69.1129 9.30223 69.1129 10.0002C69.1129 10.6982 69.3359 11.2722 69.7789 11.7222Z" fill="white"/>
<path d="M75.5749 13.0002V7.00024H76.513L79.429 11.6672H79.4619L79.429 10.5112V7.00024H80.1999V13.0002H79.3949L76.344 8.10625H76.3109L76.344 9.26224V13.0002H75.5749Z" fill="white"/>
<path d="M47.418 10.2432C47.418 11.0812 47.17 11.7482 46.673 12.2462C46.109 12.8382 45.3731 13.1342 44.4691 13.1342C43.6031 13.1342 42.8661 12.8342 42.2611 12.2342C41.6551 11.6332 41.3521 10.8892 41.3521 10.0012C41.3521 9.11219 41.6551 8.36819 42.2611 7.76819C42.8661 7.16719 43.6031 6.86719 44.4691 6.86719C44.8991 6.86719 45.3101 6.95119 45.7001 7.11819C46.0911 7.28619 46.4041 7.50919 46.6381 7.78819L46.111 8.31619C45.714 7.84119 45.167 7.60419 44.468 7.60419C43.836 7.60419 43.29 7.82619 42.829 8.27019C42.368 8.71419 42.1381 9.29119 42.1381 10.0002C42.1381 10.7092 42.368 11.2862 42.829 11.7302C43.29 12.1742 43.836 12.3962 44.468 12.3962C45.138 12.3962 45.6971 12.1732 46.1441 11.7262C46.4341 11.4352 46.602 11.0302 46.647 10.5112H44.468V9.79019H47.375C47.405 9.94719 47.418 10.0982 47.418 10.2432Z" stroke="white" stroke-width="0.2" stroke-miterlimit="10"/>
<path d="M52.0281 7.73724H49.2961V9.63924H51.7601V10.3602H49.2961V12.2622H52.0281V13.0002H48.5251V7.00024H52.0281V7.73724Z" stroke="white" stroke-width="0.2" stroke-miterlimit="10"/>
<path d="M55.279 13.0002H54.508V7.73724H52.832V7.00024H56.955V7.73724H55.279V13.0002Z" stroke="white" stroke-width="0.2" stroke-miterlimit="10"/>
<path d="M59.938 13.0002V7.00024H60.709V13.0002H59.938Z" stroke="white" stroke-width="0.2" stroke-miterlimit="10"/>
<path d="M64.1281 13.0002H63.3572V7.73724H61.6812V7.00024H65.8042V7.73724H64.1281V13.0002Z" stroke="white" stroke-width="0.2" stroke-miterlimit="10"/>
<path d="M73.6089 12.2252C73.0189 12.8312 72.2859 13.1342 71.4089 13.1342C70.5319 13.1342 69.7989 12.8312 69.2099 12.2252C68.6199 11.6192 68.3259 10.8772 68.3259 10.0002C68.3259 9.12323 68.6199 8.38123 69.2099 7.77523C69.7989 7.16923 70.5319 6.86523 71.4089 6.86523C72.2809 6.86523 73.0129 7.17023 73.6049 7.77923C74.1969 8.38823 74.4929 9.12823 74.4929 10.0002C74.4929 10.8772 74.1979 11.6192 73.6089 12.2252ZM69.7789 11.7222C70.2229 12.1722 70.7659 12.3962 71.4089 12.3962C72.0519 12.3962 72.5959 12.1712 73.0389 11.7222C73.4829 11.2722 73.7059 10.6982 73.7059 10.0002C73.7059 9.30223 73.4829 8.72823 73.0389 8.27823C72.5959 7.82823 72.0519 7.60423 71.4089 7.60423C70.7659 7.60423 70.2229 7.82923 69.7789 8.27823C69.3359 8.72823 69.1129 9.30223 69.1129 10.0002C69.1129 10.6982 69.3359 11.2722 69.7789 11.7222Z" stroke="white" stroke-width="0.2" stroke-miterlimit="10"/>
<path d="M75.5749 13.0002V7.00024H76.513L79.429 11.6672H79.4619L79.429 10.5112V7.00024H80.1999V13.0002H79.3949L76.344 8.10625H76.3109L76.344 9.26224V13.0002H75.5749Z" stroke="white" stroke-width="0.2" stroke-miterlimit="10"/>
<path fill-rule="evenodd" clip-rule="evenodd" d="M10.1564 7.96666C10.0382 8.23416 9.97299 8.56193 9.97299 8.94318V31.0592C9.97299 31.4413 10.0383 31.7691 10.1566 32.0365L22.1905 20.0008L10.1564 7.96666ZM10.8516 32.7557C11.2976 32.9465 11.8795 32.886 12.514 32.5262L26.6711 24.4814L22.8976 20.7079L10.8516 32.7557ZM27.5735 23.9696L32.015 21.4462C33.412 20.6512 33.412 19.3522 32.015 18.5582L27.5715 16.0333L23.6047 20.0008L27.5735 23.9696ZM26.6698 15.5209L12.514 7.47719C11.8795 7.11661 11.2976 7.05645 10.8515 7.24759L22.8976 19.2937L26.6698 15.5209Z" fill="white"/>
<rect x="0.5" y="0.5" width="134" height="39" rx="4.5" stroke="white"/>
</svg>

<svg width="135" height="40" fill="none" xmlns="http://www.w3.org/2000/svg"><rect x=".5" y=".5" width="134" height="39" rx="4.5" fill="#000"/><path d="M68.136 21.75c-2.352 0-4.269 1.79-4.269 4.254 0 2.449 1.917 4.253 4.269 4.253 2.353 0 4.27-1.804 4.27-4.253-.001-2.464-1.918-4.253-4.27-4.253zm0 6.833c-1.289 0-2.4-1.063-2.4-2.578 0-1.531 1.112-2.578 2.4-2.578 1.289 0 2.4 1.047 2.4 2.578 0 1.514-1.111 2.578-2.4 2.578zm-9.314-6.832c-2.352 0-4.269 1.789-4.269 4.253 0 2.449 1.917 4.253 4.269 4.253 2.353 0 4.27-1.804 4.27-4.253 0-2.464-1.917-4.253-4.27-4.253zm0 6.832c-1.289 0-2.4-1.063-2.4-2.578 0-1.531 1.112-2.578 2.4-2.578 1.289 0 2.4 1.047 2.4 2.578.001 1.514-1.111 2.578-2.4 2.578zm-11.078-5.526v1.804h4.318c-.129 1.015-.467 1.756-.983 2.27-.628.629-1.611 1.322-3.335 1.322-2.658 0-4.736-2.143-4.736-4.801 0-2.658 2.078-4.801 4.736-4.801 1.434 0 2.481.564 3.254 1.289l1.273-1.273c-1.08-1.031-2.513-1.82-4.527-1.82-3.641 0-6.702 2.964-6.702 6.605 0 3.64 3.061 6.605 6.702 6.605 1.965 0 3.448-.645 4.607-1.853 1.192-1.192 1.563-2.868 1.563-4.221 0-.418-.032-.805-.097-1.127h-6.073zm45.308 1.4c-.354-.95-1.434-2.706-3.641-2.706-2.191 0-4.012 1.724-4.012 4.253 0 2.384 1.805 4.253 4.221 4.253 1.949 0 3.077-1.192 3.545-1.885l-1.45-.967c-.483.709-1.144 1.176-2.095 1.176-.95 0-1.627-.435-2.062-1.29l5.687-2.351-.193-.482zm-5.8 1.419c-.048-1.644 1.273-2.481 2.224-2.481.741 0 1.369.37 1.579.902l-3.803 1.579zM82.629 30h1.868V17.499h-1.868v12.5zm-3.062-7.298h-.064c-.419-.5-1.225-.951-2.239-.951-2.127 0-4.076 1.869-4.076 4.27 0 2.384 1.949 4.237 4.076 4.237 1.015 0 1.82-.451 2.239-.966h.064v.612c0 1.627-.87 2.497-2.271 2.497-1.144 0-1.853-.821-2.143-1.514l-1.627.677c.467 1.127 1.707 2.513 3.77 2.513 2.191 0 4.044-1.29 4.044-4.431V22.01h-1.772v.692h-.001zm-2.142 5.88c-1.289 0-2.368-1.08-2.368-2.561 0-1.5 1.079-2.594 2.368-2.594 1.272 0 2.271 1.095 2.271 2.594 0 1.482-.999 2.562-2.271 2.562zM101.806 17.5h-4.471v12.5H99.2v-4.735h2.605c2.068 0 4.102-1.497 4.102-3.882s-2.033-3.883-4.101-3.883zm.048 6.025H99.2v-4.285h2.654c1.395 0 2.187 1.155 2.187 2.143 0 .968-.792 2.142-2.187 2.142zm11.532-1.795c-1.351 0-2.75.595-3.329 1.914l1.656.69c.354-.69 1.014-.916 1.705-.916.965 0 1.946.579 1.962 1.608v.129c-.338-.193-1.062-.482-1.946-.482-1.785 0-3.603.98-3.603 2.814 0 1.673 1.464 2.75 3.104 2.75 1.254 0 1.946-.563 2.38-1.223h.064v.965h1.802v-4.793c.001-2.218-1.657-3.456-3.795-3.456zm-.226 6.85c-.61 0-1.463-.305-1.463-1.061 0-.965 1.062-1.335 1.979-1.335.819 0 1.206.177 1.704.418a2.262 2.262 0 0 1-2.22 1.979zm10.583-6.577-2.139 5.42h-.064l-2.22-5.42h-2.01l3.329 7.575-1.898 4.214h1.946L125.818 22h-2.075zM106.937 30h1.865V17.499h-1.865v12.5zM47.418 10.243c0 .838-.248 1.505-.745 2.003-.564.592-1.3.888-2.204.888-.866 0-1.603-.3-2.208-.9-.606-.6-.909-1.345-.909-2.233 0-.889.303-1.633.91-2.233.604-.6 1.341-.9 2.207-.9.43 0 .841.083 1.231.25.391.168.704.391.938.67l-.527.528c-.397-.475-.944-.712-1.643-.712-.632 0-1.178.222-1.639.666-.461.444-.69 1.021-.69 1.73 0 .71.229 1.286.69 1.73a2.282 2.282 0 0 0 1.639.666c.67 0 1.23-.223 1.676-.67.29-.29.458-.696.503-1.215h-2.179v-.72h2.907c.03.156.043.307.043.452zM52.028 7.737h-2.732V9.64h2.464v.721h-2.464v1.902h2.732V13h-3.503V7h3.503v.737zM55.279 13h-.771V7.737h-1.676V7h4.123v.737h-1.676V13zM59.938 13V7h.771v6h-.771zM64.128 13h-.77V7.737H61.68V7h4.123v.737h-1.676V13zM73.609 12.225c-.59.606-1.323.91-2.2.91-.877 0-1.61-.304-2.2-.91-.59-.606-.883-1.348-.883-2.225s.294-1.619.884-2.225c.589-.606 1.322-.91 2.199-.91.872 0 1.604.305 2.196.914.592.61.888 1.35.888 2.221 0 .877-.295 1.62-.884 2.225zm-3.83-.503a2.2 2.2 0 0 0 1.63.674c.643 0 1.187-.225 1.63-.674.444-.45.667-1.024.667-1.722s-.223-1.272-.667-1.722a2.199 2.199 0 0 0-1.63-.674c-.643 0-1.186.225-1.63.674-.443.45-.666 1.024-.666 1.722s.223 1.272.666 1.722zM75.575 13V7h.938l2.916 4.667h.033l-.033-1.156v-3.51h.77v6h-.804l-3.051-4.895h-.033l.033 1.156V13h-.77z" fill="#fff"/><path d="M47.418 10.243c0 .838-.248 1.505-.745 2.003-.564.592-1.3.888-2.204.888-.866 0-1.603-.3-2.208-.9-.606-.6-.909-1.345-.909-2.233 0-.889.303-1.633.91-2.233.604-.6 1.341-.9 2.207-.9.43 0 .841.083 1.231.25.391.168.704.391.938.67l-.527.528c-.397-.475-.944-.712-1.643-.712-.632 0-1.178.222-1.639.666-.461.444-.69 1.021-.69 1.73 0 .71.229 1.286.69 1.73a2.282 2.282 0 0 0 1.639.666c.67 0 1.23-.223 1.676-.67.29-.29.458-.696.503-1.215h-2.179v-.72h2.907c.03.156.043.307.043.452zM52.028 7.737h-2.732V9.64h2.464v.721h-2.464v1.902h2.732V13h-3.503V7h3.503v.737zM55.279 13h-.771V7.737h-1.676V7h4.123v.737h-1.676V13zM59.938 13V7h.771v6h-.771zM64.128 13h-.77V7.737H61.68V7h4.123v.737h-1.676V13zM73.609 12.225c-.59.606-1.323.91-2.2.91-.877 0-1.61-.304-2.2-.91-.59-.606-.883-1.348-.883-2.225s.294-1.619.884-2.225c.589-.606 1.322-.91 2.199-.91.872 0 1.604.305 2.196.914.592.61.888 1.35.888 2.221 0 .877-.295 1.62-.884 2.225zm-3.83-.503a2.2 2.2 0 0 0 1.63.674c.643 0 1.187-.225 1.63-.674.444-.45.667-1.024.667-1.722s-.223-1.272-.667-1.722a2.199 2.199 0 0 0-1.63-.674c-.643 0-1.186.225-1.63.674-.443.45-.666 1.024-.666 1.722s.223 1.272.666 1.722zM75.575 13V7h.938l2.916 4.667h.033l-.033-1.156v-3.51h.77v6h-.804l-3.051-4.895h-.033l.033 1.156V13h-.77z" stroke="#fff" stroke-width=".2" stroke-miterlimit="10"/><path fill-rule="evenodd" clip-rule="evenodd" d="M10.156 7.967a2.414 2.414 0 0 0-.183.976V31.06c0 .382.065.71.184.977L22.19 20.001 10.155 7.967zm.696 24.789c.446.19 1.027.13 1.662-.23l14.157-8.045-3.773-3.773-12.046 12.048zm16.721-8.786 4.442-2.524c1.397-.795 1.397-2.094 0-2.888l-4.444-2.525-3.966 3.968 3.968 3.969zm-.903-8.45L12.514 7.478c-.634-.36-1.216-.42-1.662-.23l12.046 12.047 3.772-3.773z" fill="#fff"/><rect x=".5" y=".5" width="134" height="39" rx="4.5" stroke="#fff"/></svg>
